X:32
T:3. Allemaingne
C:Tielman Susato
B:Tielman Susato: "Danserye" (1551) no. 32
R:Allemande
Z:Transcribed by Frank Nordberg - http://www.musicaviva.com
F:http://abc.musicaviva.com/tunes/susato-tielman/susato-1551-32/susato-1551-32-4m.abc
M:4/2 
L:1/4
K:Gdor
V:1
G2GF EFGE|F2ED CDEF|G2D2G2FE|D4D4::D2DC B,CDE|F4D2E2|F4D2E2|F4D4|
GFED ^CDE^C|D4D4::D2DC B,CDE|F4D2E2|F4D2E2|F4D4|D2CB, A,G,A,2|G,4G,4:|
V:2
C4C2C2|C2A,2G,A,B,C|D2D2D3C/B,/|A,G,A,2G,4::B,4B,2B,2|B,2A,2B,2G,2|D4D2C2|A,2A,2=B,4|
=B,2CG,A,2A,2|^F,4^F,4::B,4B,2B,2|B,2A,2B,2G,2|D4D2C2|A,4B,4|A,2D3CD2|=B,4=B,4:|
V:3
G,4G,2G,2|A,2G,F, E,F,G,A,|B,2B,2B,2A,G,|F,G,G,^F,G,4::F,2F,F,G,2F,E,|D,2F,2G,4|F,G,A,F,G,4|F,G,A,F,G,3F,|
E,D,C,D, E,F,E,2|D,4D,4::F,2F,F,G,2F,D,|D,2F,2G,4|F,G,A,F,G,4|F,G,A,F,G,2F,E,|F,2G,4^F,2|G,4G,4:|
V:4
C,4C,2C,2|F,,G,,A,,B,,C,2B,,A,,|G,,2G,,2G,,A,,B,,C,|D,G,,D,2G,,4::B,,2B,,A,, G,,A,,B,,C,|D,4B,,2C,2|D,4B,,2C,2|D,4G,,4|
G,,2A,,B,,A,,2A,,2|D,4D,4::B,,2B,,A,, G,,A,,B,,C,|D,4B,,2C,2|D,4B,,2C,2|D,4G,,A,,B,,C,|D,2G,,2D,4|G,,4G,,4:|
W:
W:
W:  From Musica Viva - http://www.musicaviva.com
W:  the Internet center for free sheet music downloads.
